X: 36773
T: Shepherd's Daughter, The
R: waltz
M: 3/4
K: Gmajor
B3AG2|d4AB|c2cde2|d5|g4B2|A4GA|G2E2D2|
D2d2c2|B3AG2|d4AB|c2cde2|d5|g4B2|A4GA|G5||
Bc BA GB|dD FG AB|cd eg fe|d5|gB Bg fe|
AB dc BA|G2E2D2|D2d2c2|Bc BA GB|dD FG AB|
cd eg fe|d5|gB Bg fe|AB dc BA|G5||

